frontend/public/icons/google.svg

<svg width="24" height="24" viewBox="0 0 24 24" fill="none" xmlns="http://www.w3.org/2000/svg">
<path d="M15.5475 8.30327C14.6407 7.49361 13.4329 7 12.1089 7C9.28696 7 7 9.23899 7 12C7 14.761 9.28696 17 12.1089 17C15.5781 17 16.86 14.4296 17 12.4167H12.841" stroke="black" stroke-width="1.5"/>
<path d="M21 8V16C21 18.7614 18.7614 21 16 21H8C5.23858 21 3 18.7614 3 16V8C3 5.23858 5.23858 3 8 3H16C18.7614 3 21 5.23858 21 8Z" stroke="black" stroke-width="1.5" stroke-linecap="round" stroke-linejoin="round"/>
</svg>

<svg xmlns="http://www.w3.org/2000/svg" width="24" height="24" fill="none" viewBox="0 0 24 24">
  <path stroke="#131927" stroke-width="1.5" d="M15.547 8.303A5.148 5.148 0 0 0 12.11 7C9.287 7 7 9.239 7 12s2.287 5 5.109 5c3.47 0 4.751-2.57 4.891-4.583h-4.159"/>
  <path stroke="#131927" stroke-linecap="round" stroke-linejoin="round" stroke-width="1.5" d="M21 8v8a5 5 0 0 1-5 5H8a5 5 0 0 1-5-5V8a5 5 0 0 1 5-5h8a5 5 0 0 1 5 5Z"/>
</svg>
